src/megaphone.svg

<svg viewBox="0 0 16 16" fill="none" xmlns="http://www.w3.org/2000/svg"><path fill-rule="evenodd" clip-rule="evenodd" d="M12 2V6.5H12.5C13.3284 6.5 14 7.17157 14 8C14 8.82843 13.3284 9.5 12.5 9.5H12V14L6.41379 11H6V13C6 13.5523 5.55228 14 5 14C4.44772 14 4 13.5523 4 13V10.8293C2.83481 10.4175 2 9.30622 2 8C2 6.34315 3.34315 5 5 5H6.41379L12 2ZM11 12.3279L7 10.1797V5.82027L11 3.67212V12.3279ZM5 10H6V6H5C3.89543 6 3 6.89543 3 8C3 9.10457 3.89543 10 5 10ZM12.5 8.5H12V7.5H12.5C12.7761 7.5 13 7.72386 13 8C13 8.27614 12.7761 8.5 12.5 8.5Z" fill="#111111"/></svg>

<svg viewBox="0 0 16 16" fill="none" xmlns="http://www.w3.org/2000/svg"><path fill-rule="evenodd" clip-rule="evenodd" d="M12 2v4.5h.5a1.5 1.5 0 0 1 0 3H12V14l-5.586-3H6v2a1 1 0 1 1-2 0v-2.17A3.001 3.001 0 0 1 5 5h1.414L12 2Zm-1 10.328L7 10.18V5.82l4-2.148v8.656ZM5 10h1V6H5a2 2 0 1 0 0 4Zm7.5-1.5H12v-1h.5a.5.5 0 0 1 0 1Z" fill="#111111"/></svg>
